X:1
T:Premier Livre de Pièces de Clavecin
T:Jean-Philippe Rameau
T:9. Menuet
T:Premier Livre de Pièces de Clavecin
C:Jean-Philippe Rameau
%%score { ( 1 4 ) | ( 2 3 ) }
L:1/8
Q:1/4=140
M:3/4
K:C
V:1 treble nm="Piano" snm="Pno."
V:4 treble 
V:2 bass 
V:3 bass 
V:1
 edceBe | ceBeAe | fedcBA | P^G2 ^FG E2 | A=G^FAB^G | cBAcdB | cd{e} Td3 c/d/ |1 e6 :|2 e6 |: %9
 =gfegdg | ^cgBgAB | ^cdefge |{e} f3 e d2 | fedfcf | BfAfGA | Bcdefd |{d} e3 d c2 :| edceBe | %18
 ceBeAe | fedcBA | P^G2 ^FG E2 | A=G^FAB^G | cBAcdB | cd{e} Td3 c/d/ | e6 | =gfegdg | ^cgBgAB | %27
 ^cdefge |{e} f3 e d2 | fedfcf | BfAfGA | Bcdefd |{d} e3 d c2 | edceBe | ce^GeAe | dc{c} TB3 A | %36
 A6 |] %37
V:2
 A,,2 A,2 ^G,2 | A,2 B,2 C2 | D2 E2 F2 | E2 B,2 D2 | C4 B,2 | A,4 ^G,2 | A,6 |1 E,F,E,D,C,B,, :|2 %8
 E,6 |: z2 z2[K:treble] GF | E2 D2 ^C2 |[K:bass] B,2 A,2 A,,2 | D,6 | z2 z2 FE | D2 C2 B,2 | %15
 A,2 G,2 G,,2 | C,6 :| A,,2 A,2 ^G,2 | A,2 B,2 C2 | D2 E2 F2 | E2 B,2 D2 | C4 B,2 | A,4 ^G,2 | %23
 A,6 | z2 z2 E,,2 | z2 z2[K:treble] GF | E2 D2 ^C2 |[K:bass] B,2 A,2 A,,2 | D,6 | z2 z2 FE | %30
 D2 C2 B,2 | A,2 G,2 G,,2 | C,6 | z2 z2 ^G,2 | A,2 B,2 C2 | D2 E2 E,2 | z2 z A,,- [A,,,A,,]2 |] %37
V:3
 x6 | x6 | x6 | x6 | x6 | x6 | z2 F,4 |1 x6 :|2 z2 z2 E,,2 |: x4[K:treble] x2 | x6 |[K:bass] x6 | %12
 z2 z2 D,,2 | x6 | x6 | x6 | z2 z2 C,,2 :| x6 | x6 | x6 | x6 | x6 | x6 | z2 F,4 | E,4 x2 | %25
 x4[K:treble] x2 | x6 |[K:bass] x6 | z2 z2 D,,2 | x6 | x6 | x6 | z2 z2 C,,2 | x6 | x6 | x6 | x6 |] %37
V:4
 x6 | x6 | x6 | x6 | x6 | x6 | x6 |1 x6 :|2 z B-[^GB]-[EGB]- [EGB]2 |: x6 | x6 | x6 | x6 | x6 | %14
 x6 | x6 | x6 :| x6 | x6 | x6 | x6 | x6 | x6 | x6 | z B-[^GB]-[EGB]- [EGB]2 | x6 | x6 | x6 | x6 | %29
 x6 | x6 | x6 | x6 | x6 | x6 | x6 | z E- [CE]4 |] %37

